icons/linear-ele-arrow-down-left.svg

<svg xmlns="http://www.w3.org/2000/svg" width="32px" height="32px" viewBox="0 0 32 32" version="1.1">
    <title>linear-ele-arrow-down-left</title>
    <g id="linear-ele-arrow-down-left" stroke-width="1" fill-rule="evenodd">
        <path d="M25.2071068,6.79289322 C25.5976311,7.18341751 25.5976311,7.81658249 25.2071068,8.20710678 L9.414,24 L21.5,24 C22.0128358,24 22.4355072,24.3860402 22.4932723,24.8833789 L22.5,25 C22.5,25.5522847 22.0522847,26 21.5,26 L6.92476146,25.9972121 L6.79927424,25.9797599 L6.68785748,25.9502619 L6.57677845,25.9063266 L6.47929125,25.8540045 L6.38297765,25.7870723 L6.29285919,25.7070891 C6.25749917,25.6717127 6.22531295,25.6343256 6.19633458,25.5953066 L6.12467117,25.4840621 L6.07122549,25.371336 L6.03584514,25.265993 L6.0110178,25.1484669 L6.00397748,25.0898018 L6,25 L6,10.5 C6,9.94771525 6.44771525,9.5 7,9.5 C7.55228475,9.5 8,9.94771525 8,10.5 L8,22.584 L23.7928932,6.79289322 C24.1834175,6.40236893 24.8165825,6.40236893 25.2071068,6.79289322 Z" id="&#36335;&#24452;" fill-rule="nonzero" />
    </g>
</svg>

<svg xmlns="http://www.w3.org/2000/svg" viewBox="0 0 32 32"><path fill="currentColor" d="M25.207 6.793a1 1 0 0 1 0 1.414L9.414 24H21.5a1 1 0 0 1 .993.883L22.5 25a1 1 0 0 1-1 1l-14.575-.003-.126-.017-.111-.03-.111-.044-.098-.052-.096-.067-.09-.08a1.01 1.01 0 0 1-.097-.112l-.071-.11-.054-.114-.035-.105-.025-.118-.007-.058L6 25V10.5a1 1 0 1 1 2 0v12.084L23.793 6.793a1 1 0 0 1 1.414 0"/></svg>
